icons/alarm-clock-check.svg

<svg width="24" height="24" viewBox="0 0 24 24" fill="none" xmlns="http://www.w3.org/2000/svg">
<path d="M14.5 11C14.2353 11.2961 13.4626 12.1177 12.7342 12.8881C12.2024 13.4507 11.8389 13.8135 11.5 13.9252C10.5697 14.2318 10.0516 13.5295 9.5 13.0202" stroke="black" stroke-width="2" stroke-linecap="round" stroke-linejoin="round"/>
<path d="M2.5 4.34842L5.825 2M21.5 4.34842L18.175 2M20.4444 12.5263C20.4444 14.7597 19.5548 16.9016 17.9711 18.4809C16.3875 20.0602 14.2396 20.9474 12 20.9474C9.76039 20.9474 7.61252 20.0602 6.02888 18.4809C4.44524 16.9016 3.55556 14.7597 3.55556 12.5263C3.55556 10.2929 4.44524 8.15099 6.02888 6.57173C7.61252 4.99248 9.76039 4.10526 12 4.10526C14.2396 4.10526 16.3875 4.99248 17.9711 6.57173C19.5548 8.15099 20.4444 10.2929 20.4444 12.5263Z" stroke="black" stroke-width="2" stroke-linecap="round" stroke-linejoin="round"/>
<path d="M22 22L18.5 18.5" stroke="black" stroke-width="2" stroke-linecap="round" stroke-linejoin="round"/>
<path d="M5.49999 18.5L2 22" stroke="black" stroke-width="2" stroke-linecap="round" stroke-linejoin="round"/>
</svg>

<svg xmlns="http://www.w3.org/2000/svg" width="24" height="24" viewBox="0 0 24 24" fill="none" stroke="currentColor" stroke-width="2" stroke-linecap="round" stroke-linejoin="round">
<path d="M14.5 11a142 142 0 0 1-1.766 1.888c-.532.563-.895.925-1.234 1.037-.93.307-1.448-.396-2-.905"/><path d="M2.5 4.348 5.825 2M21.5 4.348 18.175 2m2.27 10.526a8.4 8.4 0 0 1-2.474 5.955A8.46 8.46 0 0 1 12 20.947a8.46 8.46 0 0 1-5.971-2.466 8.4 8.4 0 0 1-2.473-5.955 8.4 8.4 0 0 1 2.473-5.954A8.46 8.46 0 0 1 12 4.105c2.24 0 4.387.887 5.971 2.467a8.4 8.4 0 0 1 2.473 5.954M22 22l-3.5-3.5m-13 0L2 22"/>
</svg>
